frontend/src/icons/Security_Icon.svg

<svg width="52.000000" height="52.000000" viewBox="0 0 52 52" fill="none" xmlns="http://www.w3.org/2000/svg" xmlns:xlink="http://www.w3.org/1999/xlink">
	<desc>
			Created with Pixso.
	</desc>
	<defs>
		<clipPath id="clip312_12800">
			<rect id="icon 4" width="52.000000" height="52.000000" fill="white" fill-opacity="0"/>
		</clipPath>
	</defs>
	<g clip-path="url(#clip312_12800)">
		<path id="Vector 79" d="M20.51 24.38L24.01 27.88L30.01 21.38" stroke="#000000" stroke-opacity="1.000000" stroke-width="2.000000"/>
		<path id="Subtract" d="M23.8257 8.65894C21.3594 11.0249 17.0308 12.771 10.8389 13.8965L10.0371 14.0422L10.0181 14.8569C9.84326 22.3066 11.0488 28.2361 13.6348 32.6453C15.3877 35.6335 18.8086 39.1401 23.8975 43.1648L24.5747 43.7004L25.2036 43.1084C25.2886 43.0281 25.417 42.9075 25.5879 42.7463C30.8032 37.8369 34.2368 33.9902 35.8882 31.2065C38.5078 26.7908 39.7173 21.3386 39.5176 14.8496L39.4907 13.9824L38.6284 13.8865C32.6743 13.2249 28.1997 11.4805 25.2041 8.65332L24.5122 8L23.8257 8.65894ZM12.0039 15.7119C11.939 22.4009 13.0576 27.708 15.3599 31.6333C16.9102 34.2764 19.9448 37.4177 24.4634 41.0576C29.4028 36.3894 32.6377 32.7656 34.168 30.1863C36.4756 26.2969 37.5981 21.491 37.5361 15.7688C31.9849 15.0393 27.645 13.356 24.5166 10.7188C21.8262 12.9424 17.6553 14.6067 12.0039 15.7119Z" clip-rule="evenodd" fill="#000000" fill-opacity="1.000000" fill-rule="evenodd"/>
		<path id="Star 1" d="M34.37 28.17L33.62 28.69C33.39 28.86 33.12 28.97 32.83 29.02L31.94 29.18C31.11 29.33 30.47 29.97 30.32 30.8L30.16 31.69C30.11 31.98 30 32.25 29.83 32.49L29.31 33.23C28.83 33.92 28.83 34.83 29.31 35.52L29.83 36.27C30 36.5 30.11 36.77 30.16 37.06L30.32 37.95C30.47 38.78 31.11 39.42 31.94 39.57L32.83 39.73C33.12 39.78 33.39 39.89 33.62 40.06L34.37 40.58C35.06 41.06 35.97 41.06 36.66 40.58L37.4 40.06C37.64 39.89 37.91 39.78 38.2 39.73L39.09 39.57C39.92 39.42 40.56 38.78 40.71 37.95L40.87 37.06C40.92 36.77 41.03 36.5 41.2 36.27L41.72 35.52C42.2 34.83 42.2 33.92 41.72 33.23L41.2 32.49C41.03 32.25 40.92 31.98 40.87 31.69L40.71 30.8C40.56 29.97 39.92 29.33 39.09 29.18L38.2 29.02C37.91 28.97 37.64 28.86 37.4 28.69L36.66 28.17C35.97 27.69 35.06 27.69 34.37 28.17Z" fill="#000000" fill-opacity="1.000000" fill-rule="evenodd"/>
	</g>
</svg>

<svg width="52" height="52" fill="none" xmlns="http://www.w3.org/2000/svg"><defs><clipPath id="a"><path fill="#fff" fill-opacity="0" d="M0 0h52v52H0z"/></clipPath></defs><g clip-path="url(#a)"><path d="m20.51 24.38 3.5 3.5 6-6.5" stroke="#000" stroke-width="2"/><path d="M23.826 8.659c-2.467 2.366-6.795 4.112-12.987 5.237l-.802.146-.019.815c-.175 7.45 1.03 13.38 3.617 17.788 1.753 2.988 5.174 6.495 10.263 10.52l.677.535.629-.592.384-.362c5.215-4.91 8.649-8.756 10.3-11.54 2.62-4.415 3.83-9.867 3.63-16.356l-.027-.868-.863-.095c-5.954-.662-10.428-2.407-13.424-5.234L24.512 8l-.686.659Zm-11.822 7.053c-.065 6.689 1.054 11.996 3.356 15.921 1.55 2.643 4.585 5.785 9.103 9.425 4.94-4.669 8.175-8.292 9.705-10.872 2.308-3.89 3.43-8.695 3.368-14.417-5.551-.73-9.891-2.413-13.02-5.05-2.69 2.223-6.86 3.888-12.512 4.993Z" clip-rule="evenodd" fill="#000" fill-rule="evenodd"/><path d="m34.37 28.17-.75.52c-.23.17-.5.28-.79.33l-.89.16a2 2 0 0 0-1.62 1.62l-.16.89c-.05.29-.16.56-.33.8l-.52.74a2 2 0 0 0 0 2.29l.52.75c.17.23.28.5.33.79l.16.89a2 2 0 0 0 1.62 1.62l.89.16c.29.05.56.16.79.33l.75.52a2 2 0 0 0 2.29 0l.74-.52c.24-.17.51-.28.8-.33l.89-.16a2 2 0 0 0 1.62-1.62l.16-.89c.05-.29.16-.56.33-.79l.52-.75a2 2 0 0 0 0-2.29l-.52-.74c-.17-.24-.28-.51-.33-.8l-.16-.89a2 2 0 0 0-1.62-1.62l-.89-.16c-.29-.05-.56-.16-.8-.33l-.74-.52a2 2 0 0 0-2.29 0Z" fill="#000" fill-rule="evenodd"/></g></svg>
